X:1
T:Hold to God’s Unchanging Hand
T:Franklin Lycurgus Eiland (1860-1909)
T:Hold to God’s Unchanging Hand
T:Public Domain
T:Public Domain
C:Franklin Lycurgus Eiland (1860-1909)
Z:Public Domain
%%score ( 1 2 ) ( 3 4 )
L:1/8
M:4/4
K:Ab
V:1 treble 
V:2 treble 
V:3 bass 
V:4 bass 
V:1
 [CA]3 [CA] [CA][CE][DF][CE] | [DF] [CA]6 z | [Ec]3 [Ec] [DB][CA][EA][Ec] | [Ae]6 z2 | %4
w: 1.~Time is filled with swift tran-|si- tion—|Naught of earth un- moved can|stand—|
w: 2.~Trust in Him who will not|leave you,|What- so- ev- er years may|bring,|
w: 3.~When your jour- ney is com-|plet- ed,|If to God you have been|true,|
 [Ae]3 [Af] [Ec][DB][CA][EB] | [Ec]4 [CA]3 z | [Ec]3 [CE] [CA][CA][Ec][DB] | [CA]6 z2 || %8
w: Build your hopes on things e-|ter- nal,|Hold to God’s un- chang- ing|hand.|
w: If by earth- ly friends for-|sak- en,|Still more close- ly to Him|cling.|
w: Fair and bright the home in|glo- ry,|Your en- rap- tured soul will|view.|
"^Refrain" (C2 CC C2) [CA]2 | [CA]E[DF][DG] [CA]3 z | (E2 EE E2) [Ec]2 | [Ec][DB][CA][Ec] [Ae]3 z | %12
w: Hold * * * to|un- chang- ing hand! Hold|God’s * * * un-|ing hand! Build your hopes|
w: ||||
w: ||||
 [Ae]3 [Af] [Ac][GB][FA][GB] | [Ac]4 [EA]3 z | [Ec]3 [CE] [CA][CA][Ec][DB] | [CA]6 z2 |] %16
w: on things e- ter- nal, Hold|to God’s|un- chang- ing hand. * *||
w: ||||
w: ||||
V:2
 x8 | x8 | x8 | x8 | x8 | x8 | x8 | x8 || A6 x2 | x E x6 | c6 x2 | x8 | x8 | x8 | x8 | x8 |] %16
w: ||||||||God’s|to|chang-||||||
V:3
 [A,,E,]3 [A,,E,] [A,,E,][A,,A,][A,,A,][A,,A,] | [A,,A,] [A,,E,]6 z | %2
w: ~ ~ ~ ~ ~ ~|~ ~|
 [A,,A,]3 [A,,A,] [A,,E,][A,,E,][A,C]A, | [A,C]6 z2 | [A,C]3 [A,C] A,[E,G,][F,A,][E,G,] | %5
w: ~ ~ ~ ~ ~ ~|~|~ ~ ~ ~ ~ ~|
 [A,,A,]4 [A,,E,]3 z | [A,,A,]3 [A,,A,] [F,A,][F,A,][E,A,][E,G,] | [A,,E,A,]6 z2 || %8
w: ~ ~|~ ~ ~ ~ ~ Hold|to|
 [A,,E,]2 [A,,E,][A,,E,] [A,,E,]2 [A,,E,]2 | [A,,E,][C,A,][E,G,]E, [A,,E,]3 z | A,2 A,A, A,2 A,2 | %11
w: His hand ~ ~ ~|~ ~ ~ Hold to|hand * * * *|
 A,A,A,A, [A,C]3 z | [A,C]3 [A,D] [A,E][E,D][F,C][E,E] | [A,E]4 [A,C]3 z | %14
w: |||
 A,3 A, [F,A,][F,A,][E,A,][E,G,] | [A,,E,A,]6 z2 |] %16
w: ||
V:4
 x8 | x8 | x7 A, | x8 | x4 A, x3 | x8 | x8 | x8 || x8 | x3 E, x4 | A,2 A,A, A,2 A,2 | A,A,A,A, x4 | %12
w: ||~||~|||||His|||
 x8 | x8 | A,3 A, x4 | x8 |] %16
w: ||||

